X:3891
T:Madame Del Caro's Hornpipe
O:england
M:2/2
L:1/8
S:Armitt MS
N:  The Dotted note is actually the semi-quaver not the quaver
K:G Major
G>Bd>g|f>ed>e d>cB>A|B>cd2G>Bd>g|f>ed>c B>AG>F|G2G2G>Bd>g|f>ed>e d>cB>A|
B>cd2G>Bd>g|f>ed>c B>AG>F|G2G2||G>Bd>g|L:1/16efg3 efg3 z3F2A3c|Bcd3  Bcd
3 G3Bd3""g|efg3 efg3 B3AG3F|G4G4:||


